packages/match-logos/mono/svg/box.svg

<svg fill="none" height="36" viewBox="0 0 66 36" width="66" xmlns="http://www.w3.org/2000/svg" xmlns:xlink="http://www.w3.org/1999/xlink"><clipPath id="a"><path d="m0 0h65.4v36h-65.4z"/></clipPath><g clip-path="url(#a)"><path d="m46.26 17.4c-2.16-4.2-6.48-6.78-11.22-6.78-4.68 0-9 2.58-11.22 6.72-3.3-6.18-10.92-8.51998-17.16-5.28-.6.3-1.14.66-1.68 1.08v-10.67998c0-1.38-1.14-2.45999596-2.58-2.399996-1.32.06-2.34 1.139996-2.4 2.399996v20.99998c.12 7.02 5.88 12.6 12.9 12.48 4.62-.06 8.82-2.64 10.98-6.72 3.24 6.18 10.92 8.58 17.1 5.28 6.18-3.24 8.58-10.92 5.28-17.1zm-33.6 13.5c-4.2 0-7.62-3.42-7.62-7.62s3.42-7.62 7.62-7.62 7.62 3.42 7.62 7.62-3.42 7.62-7.62 7.62zm22.38 0c-4.2 0-7.62-3.42-7.62-7.62s3.42-7.62 7.62-7.62 7.62 3.42 7.62 7.62-3.42 7.62-7.62 7.62zm29.76 1.08-6.48-8.7 6.48-8.64c.78-1.14.48-2.76-.66-3.54-1.08-.72-2.52-.54-3.36.48l-5.64 7.5-5.58-7.5c-.9-1.08-2.52-1.2-3.6-.36-1.02.84-1.2 2.28-.48 3.36l6.48 8.7-6.48 8.7c-.78 1.14-.48 2.76.66 3.54 1.08.72 2.52.54 3.36-.48l5.58-7.5 5.58 7.5c.84 1.14 2.46 1.38 3.54.54s1.44-2.46.6-3.6z" fill="#1f304c"/></g></svg>

<svg width="66" height="36" viewBox="0 0 66 36" fill="none" xmlns="http://www.w3.org/2000/svg">
<g clip-path="url(#clip0)">
<path d="M46.26 17.4C44.1 13.2 39.78 10.62 35.04 10.62C30.36 10.62 26.04 13.2 23.82 17.34C20.52 11.16 12.9 8.82002 6.66 12.06C6.06 12.36 5.52 12.72 4.98 13.14V2.46002C4.98 1.08002 3.84 1.64062e-05 2.4 0.0600164C1.08 0.120016 0.06 1.20002 0 2.46002V23.46C0.12 30.48 5.88 36.06 12.9 35.94C17.52 35.88 21.72 33.3 23.88 29.22C27.12 35.4 34.8 37.8 40.98 34.5C47.16 31.26 49.56 23.58 46.26 17.4ZM12.66 30.9C8.46 30.9 5.04 27.48 5.04 23.28C5.04 19.08 8.46 15.66 12.66 15.66C16.86 15.66 20.28 19.08 20.28 23.28C20.28 27.48 16.86 30.9 12.66 30.9ZM35.04 30.9C30.84 30.9 27.42 27.48 27.42 23.28C27.42 19.08 30.84 15.66 35.04 15.66C39.24 15.66 42.66 19.08 42.66 23.28C42.66 27.48 39.24 30.9 35.04 30.9ZM64.8 31.98L58.32 23.28L64.8 14.64C65.58 13.5 65.28 11.88 64.14 11.1C63.06 10.38 61.62 10.56 60.78 11.58L55.14 19.08L49.56 11.58C48.66 10.5 47.04 10.38 45.96 11.22C44.94 12.06 44.76 13.5 45.48 14.58L51.96 23.28L45.48 31.98C44.7 33.12 45 34.74 46.14 35.52C47.22 36.24 48.66 36.06 49.5 35.04L55.08 27.54L60.66 35.04C61.5 36.18 63.12 36.42 64.2 35.58C65.28 34.74 65.64 33.12 64.8 31.98Z" fill="#1F304C"/>
</g>
<defs>
<clipPath id="clip0">
<rect width="65.4" height="36" fill="white"/>
</clipPath>
</defs>
</svg>
